X: 20394
T: John Doherty's
R: reel
M: 4/4
K: Adorian
EAAB cABd|[M:3/2]cABA ~G3F GAGD|[M:C]EAAB cABd|1 cABG A2AG:|2 cABG A2 ^cd||
|:efe^c d2cd|efe^c d2cd|1 efe^c d2ed|^cABG A2^cd:|2 eage dged|=cAdB cAAG||

